X:4344
L:1/8
M:2/4
K:C
 G/G/ |:"C" GE/G/ cE |"F" GF F/E/F |"G7" DE/F/ F/G/A/B/ |"C" dc c/B/c | GE/G/ cE |"F" GF F/E/F | 
"G7" DE/F/ F/G/A/B/ |1"C" cc cG/G/ :|2"C" cc cd/d/ |:[K:G]"D7" d>A c>F |"G" .G !>!B2 A/G/ | 
"D7" .F !>!c2 A/G/ |"G" G/B/d/B/ gB |"D7" d>A c>F |"G" .G !>!B2 A/G/ |"D7" F/A/c/e/ d>F |1 
"G" GB Gd/d/ :|2"G" GB G z |:[K:C]"G7" d/^c/d/e/ ff |"C" c/B/c/d/ ee |"G7" ed f/e/d |"C" dc e/d/c | 
"G7" d/^c/d/e/ ff |"C" c/B/c/d/ ee |"G7" ed f/e/d |"C" cc c z ::[K:F]"F" !>!f2 (3(fed) | 
 !>!c2 (3(cBA) |"C7" cB B/A/G |"F" dc c/B/A |"Bb" !>!f2 (3(fed) |"F" !>!c2 (3(cBA) |"C7" cB B/A/G | 
"F" FA/c/ f z :|

